_src/static/img/icon/money-card.svg

<svg width="44" height="44" viewBox="0 0 44 44" fill="none" xmlns="http://www.w3.org/2000/svg">
<path d="M0 36.6668H44H0ZM0 42.5335H44H0ZM7.33333 11.7335V7.33346H11.7333L7.33333 11.7335ZM32.2667 7.33346H36.6667V11.7335L32.2667 7.33346ZM7.33333 20.5335V24.9335H11.7333L7.33333 20.5335ZM32.2667 24.9335H36.6667V20.5335L32.2667 24.9335ZM22 22.0001C20.4441 22.0001 18.9519 21.382 17.8516 20.2818C16.7514 19.1816 16.1333 17.6894 16.1333 16.1335C16.1333 14.5775 16.7514 13.0853 17.8516 11.9851C18.9519 10.8849 20.4441 10.2668 22 10.2668C23.5559 10.2668 25.0481 10.8849 26.1484 11.9851C27.2486 13.0853 27.8667 14.5775 27.8667 16.1335C27.8667 17.6894 27.2486 19.1816 26.1484 20.2818C25.0481 21.382 23.5559 22.0001 22 22.0001ZM4.4 1.4668H39.6C40.378 1.4668 41.1241 1.77584 41.6742 2.32595C42.2243 2.87606 42.5333 3.62216 42.5333 4.40013V27.8668C42.5333 28.6448 42.2243 29.3909 41.6742 29.941C41.1241 30.4911 40.378 30.8001 39.6 30.8001H4.4C3.62203 30.8001 2.87593 30.4911 2.32582 29.941C1.77571 29.3909 1.46667 28.6448 1.46667 27.8668V4.40013C1.46667 3.62216 1.77571 2.87606 2.32582 2.32595C2.87593 1.77584 3.62203 1.4668 4.4 1.4668V1.4668Z" stroke="#00ED2F" stroke-width="1.5"/>
</svg>

<svg width="44" height="44" fill="none" xmlns="http://www.w3.org/2000/svg"><path d="M0 36.667h44H0zm0 5.866h44H0zm7.333-30.8v-4.4h4.4l-4.4 4.4zm24.934-4.4h4.4v4.4l-4.4-4.4zm-24.934 13.2v4.4h4.4l-4.4-4.4zm24.934 4.4h4.4v-4.4l-4.4 4.4zM22 22a5.867 5.867 0 110-11.734A5.867 5.867 0 0122 22zM4.4 1.467h35.2A2.933 2.933 0 0142.533 4.4v23.467A2.933 2.933 0 0139.6 30.8H4.4a2.933 2.933 0 01-2.933-2.933V4.4A2.933 2.933 0 014.4 1.467v0z" stroke="#00ED2F" stroke-width="1.5"/></svg>
